X:1
T:'Twas Within a Mile
B:Community Dances Manual 2, pub. by the English Folk Dance and Song Society, 1949
N:Collected from Tom Moses, of Lanercost, Cumberland
M:C|
L:1/8
K:D
fg|"D"a2af d2fd|"G"Bdec "D"A2FG|A3B ABde|"A"f2e2 "A7"e2fg|
"D"a2af d2fd|"G"Bdec"D"A2FG|A3B "A7"ABde|"D"f2d2d2:|
|:de|"D"f4- f2ef|"Em"g4-g2fg|"D"a2a2 "Em"gage|"A"f2e2 "A7"e2fg|
"D"a2af d2fd|"G"Bdec"D"A2FG|A3B "A7"ABde|"D"f2e2d2:|

